X: 140
T: Hunter's House
R: reel
M: 4/4
L: 1/8
K: Gmaj
A|BddB cAFA | G2BG DGBG | BddB cAFA |GBAG FGEF |
D~G3 A~G3 | BGAF GABc |defg agfd | cAFA G3 :|
A| B2gB aBgB | B2gf edcB | A~a3 b~a3 | Aaaf gfed |
B2gB aBgB | B2gf edcB | cBAg fgaf | gdBd cAF:|

